!!!COM: Ludwig van Beethoven
!!!CNT: Deutsch
!!!TXO: Deutsch
!!!OTL: "Gretels Warnung"
!!!LYR: Goethe, Johann Wolfgang
!!!OPS: Op. 75
!!!ONM: No. 4
!!!ENC: Amanda Harris
!!!YOR: Sa2mtliche Lieder, Band 1
!!!YOR: G. Henle Verlag
!!!ODT: 1809/
!!NB: Vocal melody and text encoded.
**kern	**silbe
*clefG2	*
*k[f#c#g#]	*
*M6/8	*
*MM[etwas lebhaft mit leidenschaftlicher empfindung, doch nicht zu geschwind]	*
=	=
4r	.
8r	.
4r	.
{8e	{Mit
=1	=1
4cc#	Lie-
8cc#	-bes-
8cc#	-blick
8b	|
8a	und
=2	=2
8a	Spiel
8g#	|
8f#	und
8e	Sang
8f#	|
8g#	warb
=3	=3
4a	Chri-
8a	-stel,
8a	jung
8b	|
8cc#	und
=4	=4
4.cc#	scho2n.
4b}	|}
{8e	{So
=5	=5
4cc#	lieb-
8cc#	-lich
8cc#	war,
8b	|
8a	so
=6	=6
8a	frisch
8g#	|
8f#	und
8e	schlank,
8f#	|
8g#	kein
=7	=7
4a	Ju2ng-
8a	-ling
8a	rings
8b	|
8cc#	zu
=8	=8
4.cc#	sehn.
4b}	|}
{8b	{Nein,
=9	=9
4a	kei-
8a	-ner
8cc#	war
8b	|
8a	in
=10	=10
8a	ih-
8g#	|
8f#	-rer
4e	Schar,
8ee	fu2r
=11	=11
8ee	den
8dd#	|
8cc#	ich
8cc#	das
8b	|
8a	ge-
=12	=12
4.a	-fu2hlt.
4g#}	|}
{8g#	{Das
=13	=13
4.g#	merkt'
4.a	er,
=14	=14
4.a#	ach!
4b	|
8b	und
=15	=15
4.an	liess
4.b	nicht
=16	=16
4.b#	nach,
4cc#}	|}
{8cc#	{bis
=17	=17
4bn	er
8b	es
4cc#	all,
8cc#	bis
=18	=18
4dd	er
8dd	es
4ee	all,
8ee#	bis
=19	=19
4ff#	er
8ff#	es
8ff#	all
8een	|
8g#	er-
=20	=20
4a}	-hielt.}
8r	.
4r	.
8r	.
*-	*-
